X:1
T:Title
%%score ( 1 2 ) { 3 | 4 }
L:1/8
Q:1/4=110
M:4/4
K:Eb
V:1 treble nm="Grand Piano, Soprano"
V:2 treble 
V:3 bass nm="Choir Pad, St. Peter Port, 76.76"
V:4 bass 
V:1
 [EG]2 [EA]2 [DF]2 [B,G]2 | [=A,E]2 [B,E]4 [B,D]2 | [B,E]2 [CF]2 [Ec]2 A2- | AA [EG]6 | %4
w: By~William~de~Prelaz~Crousaz,~1877 * * *||||
 [FG]2 [=Ec]2- [Ec][EG] [FA]2 | [=EA]2 [DB]4 [_EG]2 | G-[DG] [CG]2 [CF]2 [B,E]2 | [B,D]2 [B,E]6- | %8
w: ||||
 [B,E]2 z2 z4 |] %9
w: |
V:2
 x8 | x8 | z4 z2 E2 | D2 z2 z4 | x8 | x8 | .E2 z2 z4 | x8 | x8 |] %9
V:3
 B,2 C2 A,2 G,2 | F,2 G,4 F,2 | G,2 E,2 A,2 F,2 | B,2 B,6 | =B,2[K:treble] C2- CC C2 | %5
 C2[K:bass] B,4 B,2 | B,2 B,2 A,2 G,2 | F,A, G,6- | G,2 z2 z4 |] %9
V:4
 E,2 E,2 E,2 E,2 | C,2 B,,4 B,,2 | E,2 A,,2 A,,2 B,,2 | B,,2 E,6 | D,2 C,2- C,C, F,2 | %5
 F,2 B,,4 E,2 | E,2 A,,2 A,,2 B,,2 | B,,2 E,6- | E,2 z2 z4 |] %9

